Dominus_Funeral/22/apps/libreoffice-math.svg

<svg xmlns="http://www.w3.org/2000/svg" width="24" height="24" viewBox="0 0 6.35 6.35"><defs><linearGradient id="a"><stop offset="0" stop-color="#010000"/><stop offset="1" stop-opacity="0"/></linearGradient></defs><path d="M1.84.88c-.01 0-.03 0-.04.02-.03 0-.05.02-.05.04l-.5 2.87-.63-1.68c0-.04-.13.04-.28.16l-.05.05c-.14.13-.24.25-.23.3l.96 2.57c.04.06.14.14.26.19l.06.02c.16.07.29.07.3 0l.68-3.88h3.85c.07 0 .12-.13.12-.3v-.06c0-.17-.05-.3-.12-.3zm1.61 1.5a.68.68 0 0 0-.22.16l-.04.05c-.12.11-.19.23-.16.26l.77.77-.77.77c-.03.03.04.15.16.27l.04.04c.11.12.23.19.26.16l.78-.78.77.78c.03.03.14-.04.25-.16l.05-.04c.12-.12.18-.24.15-.27l-.77-.77.77-.77c.03-.03-.03-.14-.15-.26l-.05-.05c-.11-.11-.22-.18-.25-.15l-.77.77-.78-.77h-.02v-.01z" fill="#1a1a1a"/></svg>

<?xml version="1.0" encoding="UTF-8" standalone="no"?>
<svg
   xmlns:dc="http://purl.org/dc/elements/1.1/"
   xmlns:cc="http://creativecommons.org/ns#"
   xmlns:rdf="http://www.w3.org/1999/02/22-rdf-syntax-ns#"
   xmlns:svg="http://www.w3.org/2000/svg"
   xmlns="http://www.w3.org/2000/svg"
   xmlns:sodipodi="http://sodipodi.sourceforge.net/DTD/sodipodi-0.dtd"
   xmlns:inkscape="http://www.inkscape.org/namespaces/inkscape"
   width="24"
   height="24"
   viewBox="0 0 6.35 6.35"
   version="1.1"
   id="svg11"
   sodipodi:docname="libreoffice-math.svg"
   inkscape:version="0.92.4 (5da689c313, 2019-01-14)">
  <metadata
     id="metadata15">
    <rdf:RDF>
      <cc:Work
         rdf:about="">
        <dc:format>image/svg+xml</dc:format>
        <dc:type
           rdf:resource="http://purl.org/dc/dcmitype/StillImage" />
        <dc:title></dc:title>
      </cc:Work>
    </rdf:RDF>
  </metadata>
  <sodipodi:namedview
     pagecolor="#ffffff"
     bordercolor="#666666"
     borderopacity="1"
     objecttolerance="10"
     gridtolerance="10"
     guidetolerance="10"
     inkscape:pageopacity="0"
     inkscape:pageshadow="2"
     inkscape:window-width="1138"
     inkscape:window-height="480"
     id="namedview13"
     showgrid="false"
     inkscape:zoom="9.8333333"
     inkscape:cx="1.0677966"
     inkscape:cy="12"
     inkscape:window-x="0"
     inkscape:window-y="25"
     inkscape:window-maximized="0"
     inkscape:current-layer="svg11" />
  <defs
     id="defs7">
    <linearGradient
       id="a">
      <stop
         offset="0"
         stop-color="#010000"
         id="stop2" />
      <stop
         offset="1"
         stop-opacity="0"
         id="stop4" />
    </linearGradient>
  </defs>
  <path
     d="M 1.84,0.88 C 1.83,0.88 1.81,0.88 1.8,0.9 1.77,0.9 1.75,0.92 1.75,0.94 L 1.25,3.81 0.62,2.13 C 0.62,2.09 0.49,2.17 0.34,2.29 L 0.29,2.34 C 0.15,2.47 0.05,2.59 0.06,2.64 L 1.02,5.21 C 1.06,5.27 1.16,5.35 1.28,5.4 l 0.06,0.02 c 0.16,0.07 0.29,0.07 0.3,0 L 2.32,1.54 h 3.85 c 0.07,0 0.12,-0.13 0.12,-0.3 V 1.18 c 0,-0.17 -0.05,-0.3 -0.12,-0.3 z m 1.61,1.5 A 0.68,0.68 0 0 0 3.23,2.54 L 3.19,2.59 C 3.07,2.7 3,2.82 3.03,2.85 L 3.8,3.62 3.03,4.39 C 3,4.42 3.07,4.54 3.19,4.66 L 3.23,4.7 C 3.34,4.82 3.46,4.89 3.49,4.86 L 4.27,4.08 5.04,4.86 C 5.07,4.89 5.18,4.82 5.29,4.7 L 5.34,4.66 C 5.46,4.54 5.52,4.42 5.49,4.39 L 4.72,3.62 5.49,2.85 C 5.52,2.82 5.46,2.71 5.34,2.59 L 5.29,2.54 C 5.18,2.43 5.07,2.36 5.04,2.39 L 4.27,3.16 3.49,2.39 H 3.47 V 2.38 Z"
     id="path9"
     inkscape:connector-curvature="0"
     style="fill:#1a1a1a" />
</svg>
